src/assets/images/svg/languages/logo-css.svg

<svg width="30" height="34" viewBox="0 0 30 34" fill="none" xmlns="http://www.w3.org/2000/svg">
<g clip-path="url(#clip0_98_100)">
<path d="M2.51202 30.4382L0 0.0570068L30 0.11806L27.3438 30.4382L15.1132 33.9429L2.51202 30.4382Z" fill="#6CEBB6"/>
<path d="M15.1133 31.0088V2.9505L27.4675 2.9912L25.2644 28.095L15.1133 31.0088Z" fill="#97F8CF"/>
<path d="M24.3994 6.53687H5.39465L5.90949 10.2044H14.9279L6.05369 13.9741L6.56828 17.5196H19.6432L19.1695 22.4709L14.7426 23.3268L10.7276 22.3081L10.4187 19.496H6.73304L7.22707 25.3442L15.1338 27.5245L22.7112 25.1405L23.6789 13.7091H15.6689L24.3992 10.123L24.3994 6.53687Z" fill="#EFFBFF"/>
</g>
<defs>
<clipPath id="clip0_98_100">
<rect width="30" height="34" fill="white"/>
</clipPath>
</defs>
</svg>

<svg xmlns="http://www.w3.org/2000/svg" width="30" height="34" fill="none"><g clip-path="url(#a)"><path fill="#6CEBB6" d="M2.512 30.438 0 .057l30 .061-2.656 30.32-12.23 3.505-12.602-3.505Z"/><path fill="#97F8CF" d="M15.113 31.009V2.95l12.355.041-2.204 25.104-10.15 2.914Z"/><path fill="#EFFBFF" d="M24.4 6.537H5.394l.514 3.667h9.019l-8.874 3.77.514 3.546h13.075l-.474 4.95-4.426.857-4.015-1.019-.31-2.812H6.734l.494 5.848 7.907 2.18 7.577-2.384.968-11.43h-8.01l8.73-3.587V6.537Z"/></g><defs><clipPath id="a"><path fill="#fff" d="M0 0h30v34H0z"/></clipPath></defs></svg>
